icons/modern/safety-vest.svg

<svg width="32" height="32" viewBox="0 0 32 32" fill="none" xmlns="http://www.w3.org/2000/svg">
<path d="M15.7675 27.9107C15.1091 28.9456 14.2059 29.6474 13.7188 29.8516L9.03125 24.8345V2.14844H22.9688V22.1857L18.2075 29.8287C17.3089 29.4058 16.5406 28.4899 16.1659 27.9125C16.0765 27.7748 15.8557 27.7722 15.7675 27.9107Z" fill="url(#paint0_linear_18_16330)"/>
<path d="M15.7675 27.9107C15.1091 28.9456 14.2059 29.6474 13.7188 29.8516L9.03125 24.8345V2.14844H22.9688V22.1857L18.2075 29.8287C17.3089 29.4058 16.5406 28.4899 16.1659 27.9125C16.0765 27.7748 15.8557 27.7722 15.7675 27.9107Z" fill="url(#paint1_radial_18_16330)"/>
<path d="M15.7675 27.9107C15.1091 28.9456 14.2059 29.6474 13.7188 29.8516L9.03125 24.8345V2.14844H22.9688V22.1857L18.2075 29.8287C17.3089 29.4058 16.5406 28.4899 16.1659 27.9125C16.0765 27.7748 15.8557 27.7722 15.7675 27.9107Z" fill="url(#paint2_linear_18_16330)"/>
<g filter="url(#filter0_f_18_16330)">
<path d="M28.623 26.3406V14.2344C28.623 13.3871 28.3938 12.5555 27.9596 11.8278L26.3447 9.12123C25.6005 7.87379 25.1043 6.49425 24.8835 5.0585L24.8488 4.83286C24.6727 3.68712 23.6868 2.84131 22.5276 2.84131H21.6315C20.7369 2.84131 19.9392 3.40452 19.6398 4.24753L16.3251 13.5804C16.11 14.186 16.0001 14.824 16.0001 15.4667V25.1782C16.0001 25.9074 16.7542 26.844 17.3991 27.1845V27.1845C18.7915 27.9199 20.5016 29.1587 22.0762 29.1587H25.8049C27.3613 29.1587 28.623 27.897 28.623 26.3406Z" fill="#9A1D43"/>
</g>
<g filter="url(#filter1_ii_18_16330)">
<path d="M1.96875 27.1641V14.2767C1.96875 13.3747 2.21277 12.4895 2.67496 11.7148L4.39406 8.83359C5.18638 7.50565 5.71458 6.03709 5.94958 4.5087L5.98652 4.2685C6.17406 3.04883 7.22347 2.14844 8.45748 2.14844H9.41142C10.3638 2.14844 11.2129 2.74799 11.5317 3.6454L15.0602 13.5805C15.2892 14.2252 15.4062 14.9043 15.4062 15.5885V27.1641C15.4062 28.8209 14.0631 30.1641 12.4062 30.1641H4.96875C3.3119 30.1641 1.96875 28.8209 1.96875 27.1641Z" fill="url(#paint3_linear_18_16330)"/>
<path d="M1.96875 27.1641V14.2767C1.96875 13.3747 2.21277 12.4895 2.67496 11.7148L4.39406 8.83359C5.18638 7.50565 5.71458 6.03709 5.94958 4.5087L5.98652 4.2685C6.17406 3.04883 7.22347 2.14844 8.45748 2.14844H9.41142C10.3638 2.14844 11.2129 2.74799 11.5317 3.6454L15.0602 13.5805C15.2892 14.2252 15.4062 14.9043 15.4062 15.5885V27.1641C15.4062 28.8209 14.0631 30.1641 12.4062 30.1641H4.96875C3.3119 30.1641 1.96875 28.8209 1.96875 27.1641Z" fill="url(#paint4_linear_18_16330)"/>
<path d="M1.96875 27.1641V14.2767C1.96875 13.3747 2.21277 12.4895 2.67496 11.7148L4.39406 8.83359C5.18638 7.50565 5.71458 6.03709 5.94958 4.5087L5.98652 4.2685C6.17406 3.04883 7.22347 2.14844 8.45748 2.14844H9.41142C10.3638 2.14844 11.2129 2.74799 11.5317 3.6454L15.0602 13.5805C15.2892 14.2252 15.4062 14.9043 15.4062 15.5885V27.1641C15.4062 28.8209 14.0631 30.1641 12.4062 30.1641H4.96875C3.3119 30.1641 1.96875 28.8209 1.96875 27.1641Z" fill="url(#paint5_linear_18_16330)"/>
</g>
<g filter="url(#filter2_ii_18_16330)">
<path d="M30.0156 27.1641V14.2767C30.0156 13.3747 29.7716 12.4895 29.3094 11.7148L27.5903 8.83359C26.798 7.50565 26.2698 6.03709 26.0348 4.5087L25.9979 4.2685C25.8103 3.04883 24.7609 2.14844 23.5269 2.14844H22.573C21.6206 2.14844 20.7714 2.74799 20.4527 3.6454L16.9241 13.5805C16.6952 14.2252 16.5781 14.9043 16.5781 15.5885V27.1641C16.5781 28.8209 17.9213 30.1641 19.5781 30.1641H27.0156C28.6725 30.1641 30.0156 28.8209 30.0156 27.1641Z" fill="url(#paint6_linear_18_16330)"/>
<path d="M30.0156 27.1641V14.2767C30.0156 13.3747 29.7716 12.4895 29.3094 11.7148L27.5903 8.83359C26.798 7.50565 26.2698 6.03709 26.0348 4.5087L25.9979 4.2685C25.8103 3.04883 24.7609 2.14844 23.5269 2.14844H22.573C21.6206 2.14844 20.7714 2.74799 20.4527 3.6454L16.9241 13.5805C16.6952 14.2252 16.5781 14.9043 16.5781 15.5885V27.1641C16.5781 28.8209 17.9213 30.1641 19.5781 30.1641H27.0156C28.6725 30.1641 30.0156 28.8209 30.0156 27.1641Z" fill="url(#paint7_linear_18_16330)"/>
<path d="M30.0156 27.1641V14.2767C30.0156 13.3747 29.7716 12.4895 29.3094 11.7148L27.5903 8.83359C26.798 7.50565 26.2698 6.03709 26.0348 4.5087L25.9979 4.2685C25.8103 3.04883 24.7609 2.14844 23.5269 2.14844H22.573C21.6206 2.14844 20.7714 2.74799 20.4527 3.6454L16.9241 13.5805C16.6952 14.2252 16.5781 14.9043 16.5781 15.5885V27.1641C16.5781 28.8209 17.9213 30.1641 19.5781 30.1641H27.0156C28.6725 30.1641 30.0156 28.8209 30.0156 27.1641Z" fill="url(#paint8_radial_18_16330)"/>
</g>
<path d="M9.96875 2.21841C9.78943 2.17257 9.6025 2.14844 9.41142 2.14844H8.45748C8.30158 2.14844 8.14864 2.16281 8 2.19038V22.0469H1.96875V24.0156L15.4062 24.0156V22.0469H9.96875V2.21841Z" fill="url(#paint9_linear_18_16330)"/>
<path d="M9.96875 2.21841C9.78943 2.17257 9.6025 2.14844 9.41142 2.14844H8.45748C8.30158 2.14844 8.14864 2.16281 8 2.19038V22.0469H1.96875V24.0156L15.4062 24.0156V22.0469H9.96875V2.21841Z" fill="url(#paint10_linear_18_16330)"/>
<path d="M9.96875 2.21841C9.78943 2.17257 9.6025 2.14844 9.41142 2.14844H8.45748C8.30158 2.14844 8.14864 2.16281 8 2.19038V22.0469H1.96875V24.0156L15.4062 24.0156V22.0469H9.96875V2.21841Z" fill="url(#paint11_linear_18_16330)"/>
<path d="M9.96875 2.21841C9.78943 2.17257 9.6025 2.14844 9.41142 2.14844H8.45748C8.30158 2.14844 8.14864 2.16281 8 2.19038V22.0469H1.96875V24.0156L15.4062 24.0156V22.0469H9.96875V2.21841Z" fill="url(#paint12_linear_18_16330)"/>
<path d="M22.0156 2.21841C22.1949 2.17257 22.3819 2.14844 22.573 2.14844H23.5269C23.6828 2.14844 23.8357 2.16281 23.9844 2.19038V22.0469H30.0156V24.0156L16.5781 24.0156V22.0469H22.0156V2.21841Z" fill="url(#paint13_linear_18_16330)"/>
<path d="M22.0156 2.21841C22.1949 2.17257 22.3819 2.14844 22.573 2.14844H23.5269C23.6828 2.14844 23.8357 2.16281 23.9844 2.19038V22.0469H30.0156V24.0156L16.5781 24.0156V22.0469H22.0156V2.21841Z" fill="url(#paint14_linear_18_16330)"/>
<path d="M22.0156 2.21841C22.1949 2.17257 22.3819 2.14844 22.573 2.14844H23.5269C23.6828 2.14844 23.8357 2.16281 23.9844 2.19038V22.0469H30.0156V24.0156L16.5781 24.0156V22.0469H22.0156V2.21841Z" fill="url(#paint15_linear_18_16330)"/>
<defs>
<filter id="filter0_f_18_16330" x="15" y="1.84131" width="14.623" height="28.3174" filterUnits="userSpaceOnUse" color-interpolation-filters="sRGB">
<feFlood flood-opacity="0" result="BackgroundImageFix"/>
<feBlend mode="normal" in="SourceGraphic" in2="BackgroundImageFix" result="shape"/>
<feGaussianBlur stdDeviation="0.5" result="effect1_foregroundBlur_18_16330"/>
</filter>
<filter id="filter1_ii_18_16330" x="1.86875" y="2.14844" width="14.0375" height="28.0156" filterUnits="userSpaceOnUse" color-interpolation-filters="sRGB">
<feFlood flood-opacity="0" result="BackgroundImageFix"/>
<feBlend mode="normal" in="SourceGraphic" in2="BackgroundImageFix" result="shape"/>
<feColorMatrix in="SourceAlpha" type="matrix" values="0 0 0 0 0 0 0 0 0 0 0 0 0 0 0 0 0 0 127 0" result="hardAlpha"/>
<feOffset dx="0.5"/>
<feGaussianBlur stdDeviation="0.5"/>
<feComposite in2="hardAlpha" operator="arithmetic" k2="-1" k3="1"/>
<feColorMatrix type="matrix" values="0 0 0 0 0.87451 0 0 0 0 0.329412 0 0 0 0 0.278431 0 0 0 1 0"/>
<feBlend mode="normal" in2="shape" result="effect1_innerShadow_18_16330"/>
<feColorMatrix in="SourceAlpha" type="matrix" values="0 0 0 0 0 0 0 0 0 0 0 0 0 0 0 0 0 0 127 0" result="hardAlpha"/>
<feOffset dx="-0.1"/>
<feGaussianBlur stdDeviation="0.375"/>
<feComposite in2="hardAlpha" operator="arithmetic" k2="-1" k3="1"/>
<feColorMatrix type="matrix" values="0 0 0 0 1 0 0 0 0 0.454902 0 0 0 0 0.0862745 0 0 0 1 0"/>
<feBlend mode="normal" in2="effect1_innerShadow_18_16330" result="effect2_innerShadow_18_16330"/>
</filter>
<filter id="filter2_ii_18_16330" x="16.4781" y="2.14844" width="14.0375" height="28.0156" filterUnits="userSpaceOnUse" color-interpolation-filters="sRGB">
<feFlood flood-opacity="0" result="BackgroundImageFix"/>
<feBlend mode="normal" in="SourceGraphic" in2="BackgroundImageFix" result="shape"/>
<feColorMatrix in="SourceAlpha" type="matrix" values="0 0 0 0 0 0 0 0 0 0 0 0 0 0 0 0 0 0 127 0" result="hardAlpha"/>
<feOffset dx="0.5"/>
<feGaussianBlur stdDeviation="0.5"/>
<feComposite in2="hardAlpha" operator="arithmetic" k2="-1" k3="1"/>
<feColorMatrix type="matrix" values="0 0 0 0 0.909804 0 0 0 0 0.211765 0 0 0 0 0.0470588 0 0 0 1 0"/>
<feBlend mode="normal" in2="shape" result="effect1_innerShadow_18_16330"/>
<feColorMatrix in="SourceAlpha" type="matrix" values="0 0 0 0 0 0 0 0 0 0 0 0 0 0 0 0 0 0 127 0" result="hardAlpha"/>
<feOffset dx="-0.1"/>
<feGaussianBlur stdDeviation="0.375"/>
<feComposite in2="hardAlpha" operator="arithmetic" k2="-1" k3="1"/>
<feColorMatrix type="matrix" values="0 0 0 0 0.996078 0 0 0 0 0.623529 0 0 0 0 0.403922 0 0 0 1 0"/>
<feBlend mode="normal" in2="effect1_innerShadow_18_16330" result="effect2_innerShadow_18_16330"/>
</filter>
<linearGradient id="paint0_linear_18_16330" x1="16" y1="2.14844" x2="16" y2="27.7965" gradientUnits="userSpaceOnUse">
<stop offset="0.00500321" stop-color="#D33B65"/>
<stop offset="0.0821985" stop-color="#D33567"/>
<stop offset="1" stop-color="#9D244B"/>
</linearGradient>
<radialGradient id="paint1_radial_18_16330" cx="0" cy="0" r="1" gradientUnits="userSpaceOnUse" gradientTransform="translate(16 28.1116) rotate(-90) scale(2.6258 1.57057)">
<stop stop-color="#B41C6A"/>
<stop offset="1" stop-color="#B41C6A" stop-opacity="0"/>
</radialGradient>
<linearGradient id="paint2_linear_18_16330" x1="16" y1="2.14844" x2="16" y2="3.0977" gradientUnits="userSpaceOnUse">
<stop stop-color="#CB375B"/>
<stop offset="1" stop-color="#CB375B" stop-opacity="0"/>
</linearGradient>
<linearGradient id="paint3_linear_18_16330" x1="8.6875" y1="2.14844" x2="8.6875" y2="30.1641" gradientUnits="userSpaceOnUse">
<stop stop-color="#FD792C"/>
<stop offset="1" stop-color="#FF2F52"/>
</linearGradient>
<linearGradient id="paint4_linear_18_16330" x1="15.6648" y1="27.1644" x2="12.2231" y2="27.1644" gradientUnits="userSpaceOnUse">
<stop stop-color="#FF6652"/>
<stop offset="1" stop-color="#FF6652" stop-opacity="0"/>
</linearGradient>
<linearGradient id="paint5_linear_18_16330" x1="13.6743" y1="8.35156" x2="9.04932" y2="9.97656" gradientUnits="userSpaceOnUse">
<stop stop-color="#FFA362"/>
<stop offset="1" stop-color="#FF7F4D" stop-opacity="0"/>
</linearGradient>
<linearGradient id="paint6_linear_18_16330" x1="23.2969" y1="11.2402" x2="23.2969" y2="30.1641" gradientUnits="userSpaceOnUse">
<stop stop-color="#FF7C39"/>
<stop offset="1" stop-color="#FF2F52"/>
</linearGradient>
<linearGradient id="paint7_linear_18_16330" x1="30.3364" y1="27.1644" x2="26.5458" y2="27.1644" gradientUnits="userSpaceOnUse">
<stop stop-color="#FF6652"/>
<stop offset="1" stop-color="#FF6652" stop-opacity="0"/>
</linearGradient>
<radialGradient id="paint8_radial_18_16330" cx="0" cy="0" r="1" gradientUnits="userSpaceOnUse" gradientTransform="translate(28.0507 7.35584) rotate(151.844) scale(4.72637 18.388)">
<stop offset="0.254101" stop-color="#FFA967"/>
<stop offset="1" stop-color="#FF7D49" stop-opacity="0"/>
</radialGradient>
<linearGradient id="paint9_linear_18_16330" x1="8.6875" y1="6.2994" x2="8.6875" y2="24.0156" gradientUnits="userSpaceOnUse">
<stop stop-color="#DBD2E5"/>
<stop offset="1" stop-color="#E3C8FE"/>
</linearGradient>
<linearGradient id="paint10_linear_18_16330" x1="1.96875" y1="23.2024" x2="4.28081" y2="23.2024" gradientUnits="userSpaceOnUse">
<stop stop-color="#B8A7CA"/>
<stop offset="1" stop-color="#B8A7CA" stop-opacity="0"/>
</linearGradient>
<linearGradient id="paint11_linear_18_16330" x1="15.7843" y1="24.0156" x2="12.615" y2="24.0156" gradientUnits="userSpaceOnUse">
<stop offset="0.0740743" stop-color="#F4DDFF"/>
<stop offset="1" stop-color="#F4DDFF" stop-opacity="0"/>
</linearGradient>
<linearGradient id="paint12_linear_18_16330" x1="15.4062" y1="24.0156" x2="14.4637" y2="24.0156" gradientUnits="userSpaceOnUse">
<stop offset="0.0740743" stop-color="#DDC0E3"/>
<stop offset="1" stop-color="#EDD4FF" stop-opacity="0"/>
</linearGradient>
<linearGradient id="paint13_linear_18_16330" x1="23.2969" y1="6.2994" x2="23.2969" y2="24.0156" gradientUnits="userSpaceOnUse">
<stop stop-color="#DBD2E5"/>
<stop offset="1" stop-color="#E3C8FE"/>
</linearGradient>
<linearGradient id="paint14_linear_18_16330" x1="16.5781" y1="23.2024" x2="19.2923" y2="23.2024" gradientUnits="userSpaceOnUse">
<stop stop-color="#B8A7CA"/>
<stop offset="1" stop-color="#B8A7CA" stop-opacity="0"/>
</linearGradient>
<linearGradient id="paint15_linear_18_16330" x1="30.0156" y1="24.0156" x2="27.3881" y2="24.0156" gradientUnits="userSpaceOnUse">
<stop offset="0.0740743" stop-color="#F4DDFF"/>
<stop offset="1" stop-color="#F4DDFF" stop-opacity="0"/>
</linearGradient>
</defs>
</svg>

<svg width="32" height="32" fill="none" xmlns="http://www.w3.org/2000/svg"><path d="M15.768 27.91c-.659 1.036-1.562 1.737-2.05 1.942l-4.687-5.018V2.148H22.97v20.038l-4.762 7.643c-.898-.423-1.666-1.34-2.041-1.916-.09-.138-.31-.14-.399-.002Z" fill="url(#a)"/><path d="M15.768 27.91c-.659 1.036-1.562 1.737-2.05 1.942l-4.687-5.018V2.148H22.97v20.038l-4.762 7.643c-.898-.423-1.666-1.34-2.041-1.916-.09-.138-.31-.14-.399-.002Z" fill="url(#b)"/><path d="M15.768 27.91c-.659 1.036-1.562 1.737-2.05 1.942l-4.687-5.018V2.148H22.97v20.038l-4.762 7.643c-.898-.423-1.666-1.34-2.041-1.916-.09-.138-.31-.14-.399-.002Z" fill="url(#c)"/><g filter="url(#d)"><path d="M28.623 26.34V14.235c0-.847-.23-1.678-.663-2.406L26.345 9.12a11.275 11.275 0 0 1-1.461-4.063l-.035-.225a2.348 2.348 0 0 0-2.321-1.992h-.896c-.895 0-1.693.564-1.992 1.407l-3.315 9.332A5.636 5.636 0 0 0 16 15.467v9.711c0 .73.754 1.666 1.4 2.006 1.392.736 3.102 1.975 4.676 1.975h3.729a2.818 2.818 0 0 0 2.818-2.818Z" fill="#9A1D43"/></g><g filter="url(#e)"><path d="M1.969 27.164V14.277a5 5 0 0 1 .706-2.562l1.72-2.881A12 12 0 0 0 5.95 4.509l.037-.24a2.5 2.5 0 0 1 2.47-2.12h.954c.953 0 1.802.599 2.12 1.496l3.53 9.936c.228.644.345 1.323.345 2.008v11.575a3 3 0 0 1-3 3H4.97a3 3 0 0 1-3-3Z" fill="url(#f)"/><path d="M1.969 27.164V14.277a5 5 0 0 1 .706-2.562l1.72-2.881A12 12 0 0 0 5.95 4.509l.037-.24a2.5 2.5 0 0 1 2.47-2.12h.954c.953 0 1.802.599 2.12 1.496l3.53 9.936c.228.644.345 1.323.345 2.008v11.575a3 3 0 0 1-3 3H4.97a3 3 0 0 1-3-3Z" fill="url(#g)"/><path d="M1.969 27.164V14.277a5 5 0 0 1 .706-2.562l1.72-2.881A12 12 0 0 0 5.95 4.509l.037-.24a2.5 2.5 0 0 1 2.47-2.12h.954c.953 0 1.802.599 2.12 1.496l3.53 9.936c.228.644.345 1.323.345 2.008v11.575a3 3 0 0 1-3 3H4.97a3 3 0 0 1-3-3Z" fill="url(#h)"/></g><g filter="url(#i)"><path d="M30.016 27.164V14.277a5 5 0 0 0-.707-2.562L27.59 8.834a12 12 0 0 1-1.555-4.325l-.037-.24a2.5 2.5 0 0 0-2.471-2.12h-.954c-.952 0-1.802.599-2.12 1.496l-3.529 9.936a6.001 6.001 0 0 0-.346 2.008v11.575a3 3 0 0 0 3 3h7.438a3 3 0 0 0 3-3Z" fill="url(#j)"/><path d="M30.016 27.164V14.277a5 5 0 0 0-.707-2.562L27.59 8.834a12 12 0 0 1-1.555-4.325l-.037-.24a2.5 2.5 0 0 0-2.471-2.12h-.954c-.952 0-1.802.599-2.12 1.496l-3.529 9.936a6.001 6.001 0 0 0-.346 2.008v11.575a3 3 0 0 0 3 3h7.438a3 3 0 0 0 3-3Z" fill="url(#k)"/><path d="M30.016 27.164V14.277a5 5 0 0 0-.707-2.562L27.59 8.834a12 12 0 0 1-1.555-4.325l-.037-.24a2.5 2.5 0 0 0-2.471-2.12h-.954c-.952 0-1.802.599-2.12 1.496l-3.529 9.936a6.001 6.001 0 0 0-.346 2.008v11.575a3 3 0 0 0 3 3h7.438a3 3 0 0 0 3-3Z" fill="url(#l)"/></g><path d="M9.969 2.218a2.249 2.249 0 0 0-.558-.07h-.954c-.155 0-.308.015-.457.042v19.857H1.969v1.969h13.437v-1.97H9.97V2.219Z" fill="url(#m)"/><path d="M9.969 2.218a2.249 2.249 0 0 0-.558-.07h-.954c-.155 0-.308.015-.457.042v19.857H1.969v1.969h13.437v-1.97H9.97V2.219Z" fill="url(#n)"/><path d="M9.969 2.218a2.249 2.249 0 0 0-.558-.07h-.954c-.155 0-.308.015-.457.042v19.857H1.969v1.969h13.437v-1.97H9.97V2.219Z" fill="url(#o)"/><path d="M9.969 2.218a2.249 2.249 0 0 0-.558-.07h-.954c-.155 0-.308.015-.457.042v19.857H1.969v1.969h13.437v-1.97H9.97V2.219Z" fill="url(#p)"/><path d="M22.016 2.218c.179-.045.366-.07.557-.07h.954c.156 0 .309.015.457.042v19.857h6.032v1.969H16.578v-1.97h5.438V2.219Z" fill="url(#q)"/><path d="M22.016 2.218c.179-.045.366-.07.557-.07h.954c.156 0 .309.015.457.042v19.857h6.032v1.969H16.578v-1.97h5.438V2.219Z" fill="url(#r)"/><path d="M22.016 2.218c.179-.045.366-.07.557-.07h.954c.156 0 .309.015.457.042v19.857h6.032v1.969H16.578v-1.97h5.438V2.219Z" fill="url(#s)"/><defs><linearGradient id="a" x1="16" y1="2.148" x2="16" y2="27.797" gradientUnits="userSpaceOnUse"><stop offset=".005" stop-color="#D33B65"/><stop offset=".082" stop-color="#D33567"/><stop offset="1" stop-color="#9D244B"/></linearGradient><linearGradient id="c" x1="16" y1="2.148" x2="16" y2="3.098" gradientUnits="userSpaceOnUse"><stop stop-color="#CB375B"/><stop offset="1" stop-color="#CB375B" stop-opacity="0"/></linearGradient><linearGradient id="f" x1="8.688" y1="2.148" x2="8.688" y2="30.164" gradientUnits="userSpaceOnUse"><stop stop-color="#FD792C"/><stop offset="1" stop-color="#FF2F52"/></linearGradient><linearGradient id="g" x1="15.665" y1="27.164" x2="12.223" y2="27.164" gradientUnits="userSpaceOnUse"><stop stop-color="#FF6652"/><stop offset="1" stop-color="#FF6652" stop-opacity="0"/></linearGradient><linearGradient id="h" x1="13.674" y1="8.352" x2="9.049" y2="9.977" gradientUnits="userSpaceOnUse"><stop stop-color="#FFA362"/><stop offset="1" stop-color="#FF7F4D" stop-opacity="0"/></linearGradient><linearGradient id="j" x1="23.297" y1="11.24" x2="23.297" y2="30.164" gradientUnits="userSpaceOnUse"><stop stop-color="#FF7C39"/><stop offset="1" stop-color="#FF2F52"/></linearGradient><linearGradient id="k" x1="30.336" y1="27.164" x2="26.546" y2="27.164" gradientUnits="userSpaceOnUse"><stop stop-color="#FF6652"/><stop offset="1" stop-color="#FF6652" stop-opacity="0"/></linearGradient><linearGradient id="m" x1="8.688" y1="6.299" x2="8.688" y2="24.016" gradientUnits="userSpaceOnUse"><stop stop-color="#DBD2E5"/><stop offset="1" stop-color="#E3C8FE"/></linearGradient><linearGradient id="n" x1="1.969" y1="23.202" x2="4.281" y2="23.202" gradientUnits="userSpaceOnUse"><stop stop-color="#B8A7CA"/><stop offset="1" stop-color="#B8A7CA" stop-opacity="0"/></linearGradient><linearGradient id="o" x1="15.784" y1="24.016" x2="12.615" y2="24.016" gradientUnits="userSpaceOnUse"><stop offset=".074" stop-color="#F4DDFF"/><stop offset="1" stop-color="#F4DDFF" stop-opacity="0"/></linearGradient><linearGradient id="p" x1="15.406" y1="24.016" x2="14.464" y2="24.016" gradientUnits="userSpaceOnUse"><stop offset=".074" stop-color="#DDC0E3"/><stop offset="1" stop-color="#EDD4FF" stop-opacity="0"/></linearGradient><linearGradient id="q" x1="23.297" y1="6.299" x2="23.297" y2="24.016" gradientUnits="userSpaceOnUse"><stop stop-color="#DBD2E5"/><stop offset="1" stop-color="#E3C8FE"/></linearGradient><linearGradient id="r" x1="16.578" y1="23.202" x2="19.292" y2="23.202" gradientUnits="userSpaceOnUse"><stop stop-color="#B8A7CA"/><stop offset="1" stop-color="#B8A7CA" stop-opacity="0"/></linearGradient><linearGradient id="s" x1="30.016" y1="24.016" x2="27.388" y2="24.016" gradientUnits="userSpaceOnUse"><stop offset=".074" stop-color="#F4DDFF"/><stop offset="1" stop-color="#F4DDFF" stop-opacity="0"/></linearGradient><filter id="d" x="15" y="1.841" width="14.623" height="28.317" filterUnits="userSpaceOnUse" color-interpolation-filters="sRGB"><feFlood flood-opacity="0" result="BackgroundImageFix"/><feBlend in="SourceGraphic" in2="BackgroundImageFix" result="shape"/><feGaussianBlur stdDeviation=".5" result="effect1_foregroundBlur_18_16330"/></filter><filter id="e" x="1.869" y="2.148" width="14.037" height="28.016" filterUnits="userSpaceOnUse" color-interpolation-filters="sRGB"><feFlood flood-opacity="0" result="BackgroundImageFix"/><feBlend in="SourceGraphic" in2="BackgroundImageFix" result="shape"/><feColorMatrix in="SourceAlpha" values="0 0 0 0 0 0 0 0 0 0 0 0 0 0 0 0 0 0 127 0" result="hardAlpha"/><feOffset dx=".5"/><feGaussianBlur stdDeviation=".5"/><feComposite in2="hardAlpha" operator="arithmetic" k2="-1" k3="1"/><feColorMatrix values="0 0 0 0 0.87451 0 0 0 0 0.329412 0 0 0 0 0.278431 0 0 0 1 0"/><feBlend in2="shape" result="effect1_innerShadow_18_16330"/><feColorMatrix in="SourceAlpha" values="0 0 0 0 0 0 0 0 0 0 0 0 0 0 0 0 0 0 127 0" result="hardAlpha"/><feOffset dx="-.1"/><feGaussianBlur stdDeviation=".375"/><feComposite in2="hardAlpha" operator="arithmetic" k2="-1" k3="1"/><feColorMatrix values="0 0 0 0 1 0 0 0 0 0.454902 0 0 0 0 0.0862745 0 0 0 1 0"/><feBlend in2="effect1_innerShadow_18_16330" result="effect2_innerShadow_18_16330"/></filter><filter id="i" x="16.478" y="2.148" width="14.037" height="28.016" filterUnits="userSpaceOnUse" color-interpolation-filters="sRGB"><feFlood flood-opacity="0" result="BackgroundImageFix"/><feBlend in="SourceGraphic" in2="BackgroundImageFix" result="shape"/><feColorMatrix in="SourceAlpha" values="0 0 0 0 0 0 0 0 0 0 0 0 0 0 0 0 0 0 127 0" result="hardAlpha"/><feOffset dx=".5"/><feGaussianBlur stdDeviation=".5"/><feComposite in2="hardAlpha" operator="arithmetic" k2="-1" k3="1"/><feColorMatrix values="0 0 0 0 0.909804 0 0 0 0 0.211765 0 0 0 0 0.0470588 0 0 0 1 0"/><feBlend in2="shape" result="effect1_innerShadow_18_16330"/><feColorMatrix in="SourceAlpha" values="0 0 0 0 0 0 0 0 0 0 0 0 0 0 0 0 0 0 127 0" result="hardAlpha"/><feOffset dx="-.1"/><feGaussianBlur stdDeviation=".375"/><feComposite in2="hardAlpha" operator="arithmetic" k2="-1" k3="1"/><feColorMatrix values="0 0 0 0 0.996078 0 0 0 0 0.623529 0 0 0 0 0.403922 0 0 0 1 0"/><feBlend in2="effect1_innerShadow_18_16330" result="effect2_innerShadow_18_16330"/></filter><radialGradient id="b" cx="0" cy="0" r="1" gradientUnits="userSpaceOnUse" gradientTransform="matrix(0 -2.6258 1.57057 0 16 28.112)"><stop stop-color="#B41C6A"/><stop offset="1" stop-color="#B41C6A" stop-opacity="0"/></radialGradient><radialGradient id="l" cx="0" cy="0" r="1" gradientUnits="userSpaceOnUse" gradientTransform="matrix(-4.16708 2.23025 -8.67682 -16.21208 28.05 7.356)"><stop offset=".254" stop-color="#FFA967"/><stop offset="1" stop-color="#FF7D49" stop-opacity="0"/></radialGradient></defs></svg>
